docs/ionicons/svg/hardware-chip-outline.svg

<svg xmlns="http://www.w3.org/2000/svg" class="ionicon" viewBox="0 0 512 512"><rect x="80" y="80" width="352" height="352" rx="48" ry="48" stroke-linejoin="round" class="ionicon-fill-none ionicon-stroke-width"/><rect x="144" y="144" width="224" height="224" rx="16" ry="16" stroke-linejoin="round" class="ionicon-fill-none ionicon-stroke-width"/><path stroke-linecap="round" stroke-linejoin="round" d="M256 80V48m80 32V48M176 80V48m80 416v-32m80 32v-32m-160 32v-32m256-176h32m-32 80h32m-32-160h32M48 256h32m-32 80h32M48 176h32" class="ionicon-fill-none ionicon-stroke-width"/></svg>

<svg xmlns="http://www.w3.org/2000/svg" class="ionicon" viewBox="0 0 512 512"><rect x="80" y="80" width="352" height="352" rx="48" ry="48" stroke-linejoin="round" class="ionicon-fill-none ionicon-stroke-width"/><rect x="144" y="144" width="224" height="224" rx="16" ry="16" stroke-linejoin="round" class="ionicon-fill-none ionicon-stroke-width"/><path stroke-linecap="round" stroke-linejoin="round" d="M256 80V48M336 80V48M176 80V48M256 464v-32M336 464v-32M176 464v-32M432 256h32M432 336h32M432 176h32M48 256h32M48 336h32M48 176h32" class="ionicon-fill-none ionicon-stroke-width"/></svg>
